src/images/illustration-open.svg

<svg fill="none" height="123" viewBox="0 0 126 123" width="126" xmlns="http://www.w3.org/2000/svg"><path d="m62 83.6999 32-18.5-32-18.4999-32.1001 18.4999 32.1001 18.5-8.4001 18.5001-23.7-13.7001v13.7001l32.1001 18.5 32-18.5v-13.7001l-23.6 13.7001z" fill="#257cde"/><g stroke="#4d4d4d" stroke-linecap="round" stroke-linejoin="round" stroke-miterlimit="10"><path d="m62 83.6999 32-18.5-32-18.4999-32.1001 18.4999zm0 0-8.4001 18.5001-23.7-13.7001v13.7001l32.1001 18.5 32-18.5v-13.7001l-23.6 13.7001z" stroke-width="3"/><path d="m63.2002 10v-8" stroke-width="3"/><path d="m31.8999 18.4-4-6.9" stroke-width="3"/><path d="m8.90002 41.3998-6.90002-3.9999" stroke-width="3"/><path d="m124.5 37.3999-7 3.9999" stroke-width="3"/><path d="m98.6001 11.5-4 6.9" stroke-width="3"/><path d="m102.4 83.7-32 18.5-8.4-18.5 32-18.5z" fill="#257cde" stroke-width="3"/><path d="m21.5 83.7 32.1 18.5 8.4-18.5-32.1-18.5z" fill="#257cde" stroke-width="3"/><path d="m62 83.7-8.4001 18.5-23.7-13.7001v13.7001l32.1001 18.5 32-18.5v-13.7001l-23.6 13.7001z" fill="#25b1f3" stroke-width="3"/><path d="m62 83.7-32.1001-18.5001 32.1001-18.4999 32 18.4999z" stroke-width="3.2493"/><path d="m62 120.7v-74" stroke-width="3"/></g></svg>

<svg width="126" height="123" viewBox="0 0 126 123" fill="none" xmlns="http://www.w3.org/2000/svg">
<path d="M62 83.6999L94 65.1999L62 46.7L29.8999 65.1999L62 83.6999L53.5999 102.2L29.8999 88.4999V102.2L62 120.7L94 102.2V88.4999L70.4 102.2L62 83.6999Z" fill="#257CDE"/>
<path d="M62 83.6999L94 65.1999L62 46.7L29.8999 65.1999L62 83.6999ZM62 83.6999L53.5999 102.2L29.8999 88.4999V102.2L62 120.7L94 102.2V88.4999L70.4 102.2L62 83.6999Z" stroke="#4D4D4D" stroke-width="3" stroke-miterlimit="10" stroke-linecap="round" stroke-linejoin="round"/>
<path d="M63.2002 10V2" stroke="#4D4D4D" stroke-width="3" stroke-miterlimit="10" stroke-linecap="round" stroke-linejoin="round"/>
<path d="M31.8999 18.4L27.8999 11.5" stroke="#4D4D4D" stroke-width="3" stroke-miterlimit="10" stroke-linecap="round" stroke-linejoin="round"/>
<path d="M8.90002 41.3998L2 37.3999" stroke="#4D4D4D" stroke-width="3" stroke-miterlimit="10" stroke-linecap="round" stroke-linejoin="round"/>
<path d="M124.5 37.3999L117.5 41.3998" stroke="#4D4D4D" stroke-width="3" stroke-miterlimit="10" stroke-linecap="round" stroke-linejoin="round"/>
<path d="M98.6001 11.5L94.6001 18.4" stroke="#4D4D4D" stroke-width="3" stroke-miterlimit="10" stroke-linecap="round" stroke-linejoin="round"/>
<path d="M102.4 83.7L70.4 102.2L62 83.7L94 65.2L102.4 83.7Z" fill="#257CDE" stroke="#4D4D4D" stroke-width="3" stroke-miterlimit="10" stroke-linecap="round" stroke-linejoin="round"/>
<path d="M21.5 83.7L53.6 102.2L62 83.7L29.9 65.2L21.5 83.7Z" fill="#257CDE" stroke="#4D4D4D" stroke-width="3" stroke-miterlimit="10" stroke-linecap="round" stroke-linejoin="round"/>
<path d="M62 83.7L53.5999 102.2L29.8999 88.4999V102.2L62 120.7L94 102.2V88.4999L70.4 102.2L62 83.7Z" fill="#25B1F3" stroke="#4D4D4D" stroke-width="3" stroke-miterlimit="10" stroke-linecap="round" stroke-linejoin="round"/>
<path d="M62 83.7L29.8999 65.1999L62 46.7L94 65.1999L62 83.7Z" stroke="#4D4D4D" stroke-width="3.2493" stroke-miterlimit="10" stroke-linecap="round" stroke-linejoin="round"/>
<path d="M62 120.7V46.7" stroke="#4D4D4D" stroke-width="3" stroke-miterlimit="10" stroke-linecap="round" stroke-linejoin="round"/>
</svg>
